X: 381	1-8
T: Honey Suckle Schottische
S: Viola Ruth "Pioneer Western Folk Tunes" 1948 p.38 #
R: shottish
Z: 2019 John Chambers <jc:trillian.mit.edu>
N: Thick hand-drawn bar lines transcribed as thick+thin abc "bars".
N: The 2nd B in bar 19 should probably also have a flat.
M: 4/4
L: 1/8
K: F
V: 1 name="108"
[|\
C>FA>c f2f2 | e2e2 d4 | C>EG>B e2e2 | d2d2 c4 |\
C>FA>c f2f2 | e2e2 d4 | C>EG>B e2d2 | (3(cdc) (3(BAG) F4 |]
[|\
A4 B2=B2 | c6 c2 | c2=Bc dc_BA | G6 D2 |\
G4 B2c2 | d6 (^cd) | b>ge>c d2c2 | A6 A2 |
A4 B2=B2 | c6 c2 | c2=Bc d>cB>A | G6 D2 |\
G4 B2c2 | d6 (^cd) | b>ge>c d2e2 | f2f2 f2z2 |]
%%text Dedicated to Herb Wessel Ray Hashman
